src/assets/images/rightArrowPurple.svg

<svg fill="none" height="12" viewBox="0 0 20 12" width="20" xmlns="http://www.w3.org/2000/svg"><path clip-rule="evenodd" d="m16.1895 6.97656h-14.60747c-.53906 0-.976561-.4375-.976561-.97656s.437501-.97656.976561-.97656h14.60747l-2.6055-2.60547c-.3809-.38086-.3809-1 0-1.38086.3808-.38086 1-.38086 1.3808 0l4.1446 4.14258c.2253.22536.3173.53415.276.82764.0363.28908-.0564.59137-.278.81298l-4.1426 4.14259c-.3808.3809-1 .3809-1.3808 0-.3809-.3809-.3809-1.00001 0-1.38087z" fill="#4e47db" fill-rule="evenodd"/></svg>

<svg width="20" height="12" viewBox="0 0 20 12" fill="none" xmlns="http://www.w3.org/2000/svg">
<path fill-rule="evenodd" clip-rule="evenodd" d="M16.1895 6.97656H1.58203C1.04297 6.97656 0.605469 6.53906 0.605469 6C0.605469 5.46094 1.04297 5.02344 1.58203 5.02344H16.1895L13.584 2.41797C13.2031 2.03711 13.2031 1.41797 13.584 1.03711C13.9648 0.65625 14.584 0.65625 14.9648 1.03711L19.1094 5.17969C19.3347 5.40505 19.4267 5.71384 19.3854 6.00733C19.4217 6.29641 19.329 6.5987 19.1074 6.82031L14.9648 10.9629C14.584 11.3438 13.9648 11.3438 13.584 10.9629C13.2031 10.582 13.2031 9.96289 13.584 9.58203L16.1895 6.97656Z" fill="#4E47DB"/>
</svg>
